src/components/SVG/linked-in.svg

<svg width="18" height="18" viewBox="0 0 18 18" xmlns="http://www.w3.org/2000/svg" class="social-icon">
<path d="M4.08614 17.2258V5.60358H0.227649V17.2258H4.08614ZM2.15739 4.01581C3.50292 4.01581 4.34044 3.12336 4.34044 2.0081C4.31537 0.86768 3.50297 0 2.18293 0C0.863092 0 0 0.867697 0 2.0081C0 3.12341 0.837318 4.01581 2.13221 4.01581H2.15739ZM6.22181 17.2258H10.0803V10.7354C10.0803 10.388 10.1054 10.041 10.2073 9.79272C10.4862 9.09871 11.1211 8.37992 12.187 8.37992C13.5832 8.37992 14.1417 9.44571 14.1417 11.0081V17.2257H18V10.5616C18 6.99176 16.0964 5.33073 13.5578 5.33073C11.4763 5.33073 10.5624 6.49557 10.0546 7.28894H10.0804V5.60334H6.22189C6.27253 6.69391 6.22181 17.2258 6.22181 17.2258Z"/>
</svg>

<svg width="18" height="18" xmlns="http://www.w3.org/2000/svg" class="social-icon"><path d="M4.086 17.226V5.604H.228v11.622h3.858zM2.157 4.016c1.346 0 2.183-.893 2.183-2.008C4.315.868 3.503 0 2.183 0S0 .868 0 2.008c0 1.115.837 2.008 2.132 2.008h.025zm4.065 13.21h3.858v-6.49c0-.348.025-.695.127-.943.28-.694.914-1.413 1.98-1.413 1.396 0 1.955 1.066 1.955 2.628v6.218H18v-6.664c0-3.57-1.904-5.231-4.442-5.231-2.082 0-2.996 1.165-3.503 1.958h.025V5.603H6.222c.05 1.09 0 11.623 0 11.623z"/></svg>
